apps/scalable/eye/eye.svg

<svg xmlns="http://www.w3.org/2000/svg" style="isolation:isolate" width="256" height="256"><defs><filter id="a" width="270.648" height="254.338" x="-7.32" y="2.95" filterUnits="userSpaceOnUse"><feGaussianBlur xmlns="http://www.w3.org/2000/svg" in="SourceGraphic" stdDeviation="4.294"/><feOffset xmlns="http://www.w3.org/2000/svg" dy="4" result="pf_100_offsetBlur"/><feFlood xmlns="http://www.w3.org/2000/svg" flood-opacity=".4"/><feComposite xmlns="http://www.w3.org/2000/svg" in2="pf_100_offsetBlur" operator="in" result="pf_100_dropShadow"/><feBlend xmlns="http://www.w3.org/2000/svg" in="SourceGraphic" in2="pf_100_dropShadow"/></filter></defs><g filter="url(#a)"><linearGradient id="b" x1=".5" x2=".5" y1="-.036" y2="1.036" gradientTransform="matrix(244.648 0 0 228.338 5.676 11.947)" gradientUnits="userSpaceOnUse"><stop offset="0%"/><stop offset="100%" stop-color="#333"/></linearGradient><path fill="url(#b)" d="M165.685 11.947c74.055 0 84.639 10.557 84.639 84.544v59.251c0 73.986-10.584 84.543-84.639 84.543h-75.37c-74.055 0-84.639-10.557-84.639-84.543V96.491c0-73.987 10.584-84.544 84.639-84.544h75.37z"/></g><clipPath id="c"><path fill="#FFF" d="M165.69 11.95c74.056 0 84.64 10.556 84.64 84.531v59.241c0 73.975-10.584 84.531-84.64 84.531H90.32c-74.056 0-84.64-10.556-84.64-84.531V96.481c0-73.975 10.584-84.531 84.64-84.531h75.37z"/></clipPath><g clip-path="url(#c)"><path fill="#46A926" d="M208.61 45.406c-.81.81 33.513 80.643 33.513 80.643l-33.513 80.644s-80.657-42.628-80.657-80.644c0-38.015 80.657-80.643 80.657-80.643z"/><path fill="#F22C42" d="M47.296 206.693c.811-.81-33.513-80.644-33.513-80.644l33.513-80.643s80.657 42.628 80.657 80.643c0 38.016-80.657 80.644-80.657 80.644z"/><path fill="#FFDA64" d="M208.61 45.406c-.81.81-80.657-33.508-80.657-33.508L47.296 45.406l80.657 80.643 80.657-80.643z"/><path fill="#2F5FDD" d="M47.296 206.693l80.657 33.404s79.847-34.214 80.657-33.404l-80.657-80.644-80.657 80.644z"/><path fill="#A6D74F" d="M231.317 22.807c-.161-.113-.283-.259-.446-.369a39.624 39.624 0 0 0-5.856-3.246c-2.118-.96-4.407-1.801-6.879-2.536-2.471-.735-5.128-1.365-7.979-1.902-2.852-.536-5.9-.98-9.157-1.343a198.485 198.485 0 0 0-10.411-.862c-7.376-.433-15.642-.599-24.899-.599h-37.734c-.014 29.17 11.154 58.345 33.51 80.696l69.851-69.839z"/><path fill="#76C22B" d="M250.33 125.759V96.48c0-9.247-.165-17.503-.599-24.871a199 199 0 0 0-.866-10.399 123.688 123.688 0 0 0-1.346-9.145c-.537-2.848-1.167-5.5-1.903-7.968-.736-2.469-1.58-4.755-2.541-6.87a39.52 39.52 0 0 0-3.251-5.849 33.302 33.302 0 0 0-4.044-4.903c-1.352-1.35-2.862-2.547-4.463-3.668l-69.851 69.839c24.44 24.437 57.034 35.408 88.864 33.113z"/><path fill="#1463A5" d="M127.852 240.252h37.838c9.257 0 17.523-.164 24.899-.597 3.689-.216 7.154-.5 10.411-.864 3.257-.363 6.305-.807 9.157-1.343 2.851-.537 5.508-1.166 7.979-1.901 2.472-.735 4.761-1.575 6.879-2.535a39.63 39.63 0 0 0 5.856-3.248c.141-.096.248-.223.388-.321l-69.897-69.885c-22.355 22.351-33.523 51.524-33.51 80.694z"/><path fill="#2B898F" d="M231.259 229.443c1.625-1.133 3.151-2.346 4.521-3.714a33.32 33.32 0 0 0 4.044-4.905 39.497 39.497 0 0 0 3.251-5.847c.961-2.115 1.805-4.401 2.541-6.869.736-2.469 1.366-5.121 1.903-7.969.537-2.848.982-5.894 1.346-9.147a199 199 0 0 0 .866-10.399c.434-7.368.599-15.624.599-24.871v-29.275c-31.863-2.327-64.501 8.647-88.968 33.111l69.897 69.885z"/><path fill="#9B33AE" d="M5.68 126.34v29.382c0 9.247.166 17.503.6 24.871.217 3.684.501 7.146.866 10.399.364 3.253.808 6.299 1.346 9.147.537 2.848 1.167 5.5 1.903 7.969.736 2.468 1.578 4.754 2.538 6.869a39.507 39.507 0 0 0 3.254 5.847 33.301 33.301 0 0 0 4.041 4.905c1.336 1.333 2.831 2.511 4.408 3.621l69.907-69.896c-24.441-24.437-57.032-35.41-88.863-33.114z"/><path fill="#7839B7" d="M24.636 229.35c.181.127.32.29.504.414a39.58 39.58 0 0 0 5.856 3.248c2.118.96 4.406 1.8 6.878 2.535 2.472.735 5.127 1.364 7.978 1.901 2.852.536 5.899.98 9.157 1.343 3.257.364 6.724.648 10.412.864 7.377.433 15.642.597 24.899.597h37.729c.04-29.204-11.124-58.42-33.506-80.798L24.636 229.35z"/><path fill="#FDC92B" d="M128.159 11.95H90.32c-9.257 0-17.522.166-24.899.599-3.688.216-7.155.498-10.412.862-3.258.363-6.305.807-9.157 1.343-2.851.537-5.506 1.167-7.978 1.902-2.472.735-4.76 1.576-6.878 2.536a39.573 39.573 0 0 0-5.856 3.246c-.142.096-.25.223-.39.321l69.897 69.887c22.355-22.351 33.525-51.526 33.512-80.696z"/><path fill="#F34F17" d="M24.75 22.759c-1.625 1.133-3.152 2.349-4.522 3.716a33.284 33.284 0 0 0-4.041 4.903 39.53 39.53 0 0 0-3.254 5.849c-.96 2.115-1.802 4.401-2.538 6.87-.736 2.468-1.366 5.12-1.903 7.968-.538 2.848-.982 5.892-1.346 9.145a197.918 197.918 0 0 0-.866 10.399c-.434 7.368-.6 15.624-.6 24.871v29.275c31.864 2.327 64.5-8.645 88.967-33.109L24.75 22.759z"/></g><path fill="#FFF" d="M128.161 11.987c63.054 0 114.17 51.108 114.17 114.152 0 63.044-51.116 114.151-114.17 114.151-63.055 0-114.17-51.107-114.17-114.151S65.106 11.987 128.161 11.987z" opacity=".1"/><path fill="#FFF" d="M128.005 44.565c45.039 0 81.55 36.505 81.55 81.536 0 45.032-36.511 81.537-81.55 81.537-45.039 0-81.55-36.505-81.55-81.537 0-45.031 36.511-81.536 81.55-81.536z" opacity=".1"/><ellipse fill="#FFF" rx="1" ry="1" transform="matrix(47.401 0 0 47.393 128.005 126.101)" vector-effect="non-scaling-stroke" opacity=".1"/><g opacity=".4"><linearGradient id="d" x1=".517" x2=".517" y2="1"><stop offset="0%" stop-color="#fff"/><stop offset="12.5%" stop-opacity=".098" stop-color="#fff"/><stop offset="92.5%" stop-opacity=".098"/><stop offset="100%" stop-opacity=".498"/></linearGradient><path fill="none" stroke="url(#d)" stroke-linecap="round" stroke-linejoin="round" stroke-width="4.077" d="M165.685 11.947c74.055 0 84.639 10.557 84.639 84.544v59.251c0 73.986-10.584 84.543-84.639 84.543h-75.37c-74.055 0-84.639-10.557-84.639-84.543V96.491c0-73.987 10.584-84.544 84.639-84.544h75.37z" vector-effect="non-scaling-stroke"/></g></svg>

<svg xmlns="http://www.w3.org/2000/svg" style="isolation:isolate" width="256" height="256" viewBox="0 0 256 256">
 <defs>
  <filter id="8Jv2V8UM9foghL0six1jQ57gYkZpCII1" width="270.648" height="254.338" x="-7.32" y="2.95" filterUnits="userSpaceOnUse">
   <feGaussianBlur xmlns="http://www.w3.org/2000/svg" in="SourceGraphic" stdDeviation="4.294"/>
   <feOffset xmlns="http://www.w3.org/2000/svg" dx="0" dy="4" result="pf_100_offsetBlur"/>
   <feFlood xmlns="http://www.w3.org/2000/svg" flood-opacity=".4"/>
   <feComposite xmlns="http://www.w3.org/2000/svg" in2="pf_100_offsetBlur" operator="in" result="pf_100_dropShadow"/>
   <feBlend xmlns="http://www.w3.org/2000/svg" in="SourceGraphic" in2="pf_100_dropShadow" mode="normal"/>
  </filter>
 </defs>
 <g filter="url(#8Jv2V8UM9foghL0six1jQ57gYkZpCII1)">
  <linearGradient id="_lgradient_130" x1=".5" x2=".5" y1="-.036" y2="1.036" gradientTransform="matrix(244.648,0,0,228.338,5.676,11.947)" gradientUnits="userSpaceOnUse">
   <stop offset="0%" style="stop-color:rgb(0,0,0)"/>
   <stop offset="100%" style="stop-color:rgb(51,51,51)"/>
  </linearGradient>
  <path fill="url(#_lgradient_130)" d="M 165.685 11.947 C 239.74 11.947 250.324 22.504 250.324 96.491 L 250.324 155.742 C 250.324 229.728 239.74 240.285 165.685 240.285 L 90.315 240.285 C 16.26 240.285 5.676 229.728 5.676 155.742 L 5.676 96.491 C 5.676 22.504 16.26 11.947 90.315 11.947 L 165.685 11.947 Z"/>
 </g>
 <g>
  <clipPath id="_clipPath_fbfQT1k1xEUBkkDmqhI7nmI1SaIR8knJ">
   <path fill="#FFFFFF" d="M 165.69 11.95 C 239.746 11.95 250.33 22.506 250.33 96.481 L 250.33 155.722 C 250.33 229.697 239.746 240.253 165.69 240.253 L 90.32 240.253 C 16.264 240.253 5.68 229.697 5.68 155.722 L 5.68 96.481 C 5.68 22.506 16.264 11.95 90.32 11.95 L 165.69 11.95 Z"/>
  </clipPath>
  <g clip-path="url(#_clipPath_fbfQT1k1xEUBkkDmqhI7nmI1SaIR8knJ)">
   <path fill="#46A926" d="M 208.61 45.406 C 207.8 46.216 242.123 126.049 242.123 126.049 L 208.61 206.693 C 208.61 206.693 127.953 164.065 127.953 126.049 C 127.953 88.034 208.61 45.406 208.61 45.406 Z"/>
   <path fill="#F22C42" d="M 47.296 206.693 C 48.107 205.883 13.783 126.049 13.783 126.049 L 47.296 45.406 C 47.296 45.406 127.953 88.034 127.953 126.049 C 127.953 164.065 47.296 206.693 47.296 206.693 Z"/>
   <path fill="#FFDA64" d="M 208.61 45.406 C 207.8 46.216 127.953 11.898 127.953 11.898 L 47.296 45.406 L 127.953 126.049 L 208.61 45.406 Z"/>
   <path fill="#2F5FDD" d="M 47.296 206.693 L 127.953 240.097 C 127.953 240.097 207.8 205.883 208.61 206.693 L 127.953 126.049 L 47.296 206.693 Z"/>
   <path fill="#A6D74F" d="M 231.317 22.807 C 231.156 22.694 231.034 22.548 230.871 22.438 C 229.081 21.229 227.133 20.151 225.015 19.192 C 222.897 18.232 220.608 17.391 218.136 16.656 C 215.665 15.921 213.008 15.291 210.157 14.754 C 207.305 14.218 204.257 13.774 201 13.411 C 197.743 13.047 194.278 12.765 190.589 12.549 C 183.213 12.116 174.947 11.95 165.69 11.95 L 127.956 11.95 C 127.942 41.12 139.11 70.295 161.466 92.646 L 231.317 22.807 Z"/>
   <path fill="#76C22B" d="M 250.33 125.759 L 250.33 96.48 C 250.33 87.233 250.165 78.977 249.731 71.609 C 249.514 67.925 249.229 64.463 248.865 61.21 C 248.501 57.957 248.056 54.913 247.519 52.065 C 246.982 49.217 246.352 46.565 245.616 44.097 C 244.88 41.628 244.036 39.342 243.075 37.227 C 242.114 35.112 241.036 33.166 239.824 31.378 C 238.613 29.591 237.268 27.961 235.78 26.475 C 234.428 25.125 232.918 23.928 231.317 22.807 L 161.466 92.646 C 185.906 117.083 218.5 128.054 250.33 125.759 Z"/>
   <path fill="#1463A5" d="M 127.852 240.252 L 165.69 240.252 C 174.947 240.252 183.213 240.088 190.589 239.655 C 194.278 239.439 197.743 239.155 201 238.791 C 204.257 238.428 207.305 237.984 210.157 237.448 C 213.008 236.911 215.665 236.282 218.136 235.547 C 220.608 234.812 222.897 233.972 225.015 233.012 C 227.133 232.053 229.081 230.973 230.871 229.764 C 231.012 229.668 231.119 229.541 231.259 229.443 L 161.362 159.558 C 139.007 181.909 127.839 211.082 127.852 240.252 Z"/>
   <path fill="#2B898F" d="M 231.259 229.443 C 232.884 228.31 234.41 227.097 235.78 225.729 C 237.268 224.243 238.613 222.611 239.824 220.824 C 241.036 219.036 242.114 217.092 243.075 214.977 C 244.036 212.862 244.88 210.576 245.616 208.108 C 246.352 205.639 246.982 202.987 247.519 200.139 C 248.056 197.291 248.501 194.245 248.865 190.992 C 249.229 187.739 249.514 184.277 249.731 180.593 C 250.165 173.225 250.33 164.969 250.33 155.722 L 250.33 126.447 C 218.467 124.12 185.829 135.094 161.362 159.558 L 231.259 229.443 Z"/>
   <path fill="#9B33AE" d="M 5.68 126.34 L 5.68 155.722 C 5.68 164.969 5.846 173.225 6.28 180.593 C 6.497 184.277 6.781 187.739 7.146 190.992 C 7.51 194.245 7.954 197.291 8.492 200.139 C 9.029 202.987 9.659 205.639 10.395 208.108 C 11.131 210.576 11.973 212.862 12.933 214.977 C 13.894 217.092 14.975 219.036 16.187 220.824 C 17.398 222.611 18.74 224.243 20.228 225.729 C 21.564 227.062 23.059 228.24 24.636 229.35 L 94.543 159.454 C 70.102 135.017 37.511 124.044 5.68 126.34 Z"/>
   <path fill="#7839B7" d="M 24.636 229.35 C 24.817 229.477 24.956 229.64 25.14 229.764 C 26.93 230.973 28.877 232.053 30.996 233.012 C 33.114 233.972 35.402 234.812 37.874 235.547 C 40.346 236.282 43.001 236.911 45.852 237.448 C 48.704 237.984 51.751 238.428 55.009 238.791 C 58.266 239.155 61.733 239.439 65.421 239.655 C 72.798 240.088 81.063 240.252 90.32 240.252 L 128.049 240.252 C 128.089 211.048 116.925 181.832 94.543 159.454 L 24.636 229.35 Z"/>
   <path fill="#FDC92B" d="M 128.159 11.95 L 90.32 11.95 C 81.063 11.95 72.798 12.116 65.421 12.549 C 61.733 12.765 58.266 13.047 55.009 13.411 C 51.751 13.774 48.704 14.218 45.852 14.754 C 43.001 15.291 40.346 15.921 37.874 16.656 C 35.402 17.391 33.114 18.232 30.996 19.192 C 28.877 20.151 26.93 21.229 25.14 22.438 C 24.998 22.534 24.89 22.661 24.75 22.759 L 94.647 92.646 C 117.002 70.295 128.172 41.12 128.159 11.95 Z"/>
   <path fill="#F34F17" d="M 24.75 22.759 C 23.125 23.892 21.598 25.108 20.228 26.475 C 18.74 27.961 17.398 29.591 16.187 31.378 C 14.975 33.166 13.894 35.112 12.933 37.227 C 11.973 39.342 11.131 41.628 10.395 44.097 C 9.659 46.565 9.029 49.217 8.492 52.065 C 7.954 54.913 7.51 57.957 7.146 61.21 C 6.781 64.463 6.497 67.925 6.28 71.609 C 5.846 78.977 5.68 87.233 5.68 96.48 L 5.68 125.755 C 37.544 128.082 70.18 117.11 94.647 92.646 L 24.75 22.759 Z"/>
  </g>
  <g opacity=".1">
   <path fill="#FFFFFF" d="M 128.161 11.987 C 191.215 11.987 242.331 63.095 242.331 126.139 C 242.331 189.183 191.215 240.29 128.161 240.29 C 65.106 240.29 13.991 189.183 13.991 126.139 C 13.991 63.095 65.106 11.987 128.161 11.987 L 128.161 11.987 Z"/>
  </g>
  <g opacity=".1">
   <path fill="#FFFFFF" d="M 128.005 44.565 C 173.044 44.565 209.555 81.07 209.555 126.101 C 209.555 171.133 173.044 207.638 128.005 207.638 C 82.966 207.638 46.455 171.133 46.455 126.101 C 46.455 81.07 82.966 44.565 128.005 44.565 L 128.005 44.565 Z"/>
  </g>
  <g opacity=".1">
   <ellipse fill="#FFFFFF" cx="0" cy="0" rx="1" ry="1" transform="matrix(47.401,0,0,47.393,128.005,126.101)" vector-effect="non-scaling-stroke"/>
  </g>
 </g>
 <g opacity=".4">
  <linearGradient id="_lgradient_131" x1=".517" x2=".517" y1="0" y2="1">
   <stop offset="0%" style="stop-color:rgb(255,255,255)"/>
   <stop offset="12.5%" stop-opacity=".098" style="stop-color:rgb(255,255,255)"/>
   <stop offset="92.5%" stop-opacity=".098" style="stop-color:rgb(0,0,0)"/>
   <stop offset="100%" stop-opacity=".498" style="stop-color:rgb(0,0,0)"/>
  </linearGradient>
  <path fill="none" stroke="url(#_lgradient_131)" stroke-linecap="round" stroke-linejoin="round" stroke-width="4.077" d="M 165.685 11.947 C 239.74 11.947 250.324 22.504 250.324 96.491 L 250.324 155.742 C 250.324 229.728 239.74 240.285 165.685 240.285 L 90.315 240.285 C 16.26 240.285 5.676 229.728 5.676 155.742 L 5.676 96.491 C 5.676 22.504 16.26 11.947 90.315 11.947 L 165.685 11.947 Z" vector-effect="non-scaling-stroke"/>
 </g>
</svg>
